64x64/apps/kdisknav.svg

<svg height="64" width="64" xmlns="http://www.w3.org/2000/svg"><path d="m4 52.2v2c0 1.55 1.25 2.8 2.8 2.8h50.4c1.55 0 2.8-1.25 2.8-2.8v-2c0 1.55-1.25 2.8-2.8 2.8h-50.4c-1.55 0-2.8-1.25-2.8-2.8z" opacity=".2"/><path d="m60 53.2v-42.4c0-1.55-1.25-2.8-2.8-2.8h-50.4a2.794 2.794 0 0 0 -2.8 2.8v42.4c0 1.552 1.249 2.8 2.8 2.8h50.4c1.55 0 2.8-1.249 2.8-2.8z" fill="#e3af4a"/><rect height="32" opacity=".2" rx="2.7" ry="2.912" width="39.999" x="12" y="17"/><rect fill="#faff84" height="32" rx="2.7" ry="2.912" width="39.999" x="12" y="16"/><rect height="6" opacity=".2" rx="2.644" ry="2.736" width="16" x="24" y="29"/><rect fill="#4e4e4e" height="6" rx="2.644" ry="2.736" width="16" x="24" y="28"/><path d="m6.8 8c-1.55 0-2.8 1.25-2.8 2.8v1c0-1.55 1.25-2.8 2.8-2.8h50.4c1.55 0 2.8 1.25 2.8 2.8v-1c0-1.55-1.25-2.8-2.8-2.8z" fill="#f4f4f7" opacity=".2"/></svg>

<svg height="64" width="64" xmlns="http://www.w3.org/2000/svg">
    <path d="M4 52.2v2C4 55.75 5.25 57 6.8 57h50.4c1.55 0 2.8-1.25 2.8-2.8v-2c0 1.55-1.25 2.8-2.8 2.8H6.8C5.25 55 4 53.75 4 52.2z" opacity=".2"/>
    <path d="M60 53.2V10.8C60 9.25 58.75 8 57.2 8H6.8A2.794 2.794 0 0 0 4 10.8v42.4C4 54.752 5.249 56 6.8 56h50.4c1.55 0 2.8-1.249 2.8-2.8z" fill="#e3af4a"/>
    <rect height="32" opacity=".2" rx="2.7" ry="2.912" width="39.999" x="12" y="17"/>
    <rect fill="#faff84" height="32" rx="2.7" ry="2.912" width="39.999" x="12" y="16"/>
    <rect height="6" opacity=".2" rx="2.644" ry="2.736" width="16" x="24" y="29"/>
    <rect fill="#4e4e4e" height="6" rx="2.644" ry="2.736" width="16" x="24" y="28"/>
    <path d="M6.8 8C5.25 8 4 9.25 4 10.8v1C4 10.25 5.25 9 6.8 9h50.4c1.55 0 2.8 1.25 2.8 2.8v-1C60 9.25 58.75 8 57.2 8z" fill="#f4f4f7" opacity=".2"/>
</svg>
